modules/hawcons-stroke/icons/document-file-sql.svg

<?xml version="1.0" encoding="UTF-8" standalone="no"?>
<svg width="32px" height="32px" viewBox="0 0 32 32" version="1.1" xmlns="http://www.w3.org/2000/svg" xmlns:xlink="http://www.w3.org/1999/xlink" xmlns:sketch="http://www.bohemiancoding.com/sketch/ns">
    <!-- Generator: Sketch 3.0.3 (7891) - http://www.bohemiancoding.com/sketch -->
    <title>icon 89 document file sql</title>
    <desc>Created with Sketch.</desc>
    <defs></defs>
    <g id="Page-1" stroke="none" stroke-width="1" fill="none" fill-rule="evenodd" sketch:type="MSPage">
        <g id="icon-89-document-file-sql" sketch:type="MSArtboardGroup" fill="#929292">
            <path d="M20.6756443,22.8827511 C20.463169,22.9587282 20.2340236,23 19.9951185,23 L19.0048815,23 C17.8938998,23 17,22.1019194 17,20.9940809 L17,18.0059191 C17,16.8865548 17.897616,16 19.0048815,16 L19.9951185,16 C21.1061002,16 22,16.8980806 22,18.0059191 L22,20.9940809 C22,21.4993595 21.8171018,21.9572008 21.5145823,22.3074755 L22.267767,23.0606602 L21.5606602,23.767767 L20.6756443,22.8827511 L20.6756443,22.8827511 L20.6756443,22.8827511 Z M19.7928932,22 L18.9989566,22 C18.4426603,22 18,21.5523709 18,21.0001925 L18,17.9998075 C18,17.4437166 18.4472481,17 18.9989566,17 L20.0010434,17 C20.5573397,17 21,17.4476291 21,17.9998075 L21,21.0001925 C21,21.2246463 20.9271364,21.4307925 20.8039499,21.5968431 L19.4393398,20.232233 L18.732233,20.9393398 L19.7928932,22 L19.7928932,22 L19.7928932,22 Z M21,13 L21,10 L21,10 L15,3 L4.00276013,3 C2.89666625,3 2,3.89833832 2,5.00732994 L2,27.9926701 C2,29.1012878 2.89092539,30 3.99742191,30 L19.0025781,30 C20.1057238,30 21,29.1017876 21,28.0092049 L21,26 L27.9931517,26 C29.6537881,26 31,24.6577357 31,23.0012144 L31,15.9987856 C31,14.3426021 29.6640085,13 27.9931517,13 L21,13 L21,13 L21,13 Z M20,26 L20,28.0066023 C20,28.5550537 19.5523026,29 19.0000398,29 L3.9999602,29 C3.45470893,29 3,28.5543187 3,28.004543 L3,4.99545703 C3,4.45526288 3.44573523,4 3.9955775,4 L14,4 L14,8.99408095 C14,10.1134452 14.8944962,11 15.9979131,11 L20,11 L20,13 L11.0068483,13 C9.34621185,13 8,14.3422643 8,15.9987856 L8,23.0012144 C8,24.6573979 9.33599155,26 11.0068483,26 L20,26 L20,26 L20,26 Z M15,4.5 L15,8.99121523 C15,9.54835167 15.4506511,10 15.9967388,10 L19.6999512,10 L15,4.5 L15,4.5 Z M10.9945615,14 C9.89299558,14 9,14.9001762 9,15.992017 L9,23.007983 C9,24.1081436 9.90234375,25 10.9945615,25 L28.0054385,25 C29.1070044,25 30,24.0998238 30,23.007983 L30,15.992017 C30,14.8918564 29.0976562,14 28.0054385,14 L10.9945615,14 L10.9945615,14 Z M13.0048815,16 C11.897616,16 11,16.8877296 11,18 C11,19.1045695 11.8877296,20 13,20 L13.9906311,20 C14.5480902,20 15,20.4438648 15,21 C15,21.5522847 14.5573397,22 14.0010434,22 L12.9989566,22 C12.4472481,22 12,21.543716 12,21.0044713 L12,20.9931641 L11,20.9931641 L11,20.998921 C11,22.1040864 11.8938998,23 13.0048815,23 L13.9951185,23 C15.102384,23 16,22.1122704 16,21 C16,19.8954305 15.1122704,19 14,19 L13.0093689,19 C12.4519098,19 12,18.5561352 12,18 C12,17.4477153 12.4426603,17 12.9989566,17 L14.0010434,17 C14.5527519,17 15,17.453186 15,18 L16,18 C16,16.8954305 15.1061002,16 13.9951185,16 L13.0048815,16 L13.0048815,16 Z M28,22 L28,23 L23,23 L23,16 L24,16 L24,22 L28,22 L28,22 Z" id="document-file-sql" sketch:type="MSShapeGroup"></path>
        </g>
    </g>
</svg>

<svg width="32" height="32" viewBox="0 0 32 32" xmlns="http://www.w3.org/2000/svg"><path d="M20.676 22.883a2.017 2.017 0 0 1-.68.117h-.991A2.003 2.003 0 0 1 17 20.994v-2.988c0-1.12.898-2.006 2.005-2.006h.99c1.111 0 2.005.898 2.005 2.006v2.988c0 .505-.183.963-.485 1.313l.753.754-.707.707-.885-.885zM19.793 22h-.794A.996.996 0 0 1 18 21v-3c0-.556.447-1 .999-1h1.002c.556 0 .999.448.999 1v3c0 .225-.073.43-.196.597l-1.365-1.365-.707.707L19.792 22zM21 13v-3l-6-7H4.003A2.005 2.005 0 0 0 2 5.007v22.986A2 2 0 0 0 3.997 30h15.006A1.999 1.999 0 0 0 21 28.01V26h6.993A3.003 3.003 0 0 0 31 23.001V16A2.996 2.996 0 0 0 27.993 13H21zm-1 13v2.007A.997.997 0 0 1 19 29H4c-.545 0-1-.446-1-.995V4.995c0-.54.446-.995.996-.995H14v4.994c0 1.12.894 2.006 1.998 2.006H20v2h-8.993A3.003 3.003 0 0 0 8 15.999V23A2.996 2.996 0 0 0 11.007 26H20zM15 4.5v4.491c0 .557.45 1.009.997 1.009H19.7L15 4.5zM10.995 14C9.893 14 9 14.9 9 15.992v7.016A2 2 0 0 0 10.995 25h17.01C29.107 25 30 24.1 30 23.008v-7.016A2 2 0 0 0 28.005 14h-17.01zm2.01 2A1.998 1.998 0 0 0 11 18c0 1.105.888 2 2 2h.99c.558 0 1.01.444 1.01 1 0 .552-.443 1-.999 1h-1.002c-.552 0-.999-.456-.999-.996v-.01h-1v.005A2 2 0 0 0 13.005 23h.99A1.998 1.998 0 0 0 16 21c0-1.105-.888-2-2-2h-.99c-.558 0-1.01-.444-1.01-1 0-.552.443-1 .999-1h1.002c.552 0 .999.453.999 1h1a2 2 0 0 0-2.005-2h-.99zM28 22v1h-5v-7h1v6h4z" fill="#929292" fill-rule="evenodd"/></svg>
